lib/logo_updates/nrk-logo-nrk-p1-on-dark.svg

<svg width="186" height="48" viewBox="0 0 186 48" fill="none" xmlns="http://www.w3.org/2000/svg">
<path d="M0 45V3.00381H13.7802V45H0ZM32.5283 9.68773L40.4532 45H25.3721L15.9092 3.00381H24.3676C26.3072 2.97864 28.1892 3.66237 29.6607 4.92636C31.1347 6.13734 32.1473 7.81844 32.5283 9.68773ZM42.5233 45V3.00381H56.3035V45H42.5233ZM66.7116 18.9743C65.2267 18.9888 63.7656 18.6003 62.4839 17.8504C61.2193 17.1194 60.1688 16.0689 59.438 14.8041C58.6872 13.5222 58.2986 12.0607 58.3134 10.5751C58.2964 9.09861 58.6853 7.64583 59.438 6.3755C60.1766 5.12447 61.2259 4.08533 62.4839 3.35882C63.766 2.60976 65.2269 2.2213 66.7116 2.23484C68.1877 2.21895 69.6399 2.60775 70.9108 3.35882C72.1562 4.09169 73.1943 5.12996 73.9271 6.3755C74.6789 7.64618 75.0677 9.09873 75.0517 10.5751C75.0655 12.0605 74.6769 13.5218 73.9271 14.8041C73.202 16.0633 72.1627 17.113 70.9108 17.8504C69.6398 18.6029 68.1866 18.9918 66.7097 18.9743H66.7116ZM77.1807 45V3.00381H90.9621V45H77.1807ZM108.408 25.9538C108.447 25.9946 108.742 26.4776 109.295 27.403C109.848 28.3283 110.567 29.5114 111.454 30.952C112.341 32.392 113.277 33.9199 114.262 35.536C115.247 37.1521 116.174 38.6803 117.043 40.1202C117.908 41.5602 118.894 43.1867 120 45H104.859C103.912 43.4621 103.055 42.0721 102.286 40.83C101.517 39.5878 100.7 38.2471 99.8334 36.8077C98.9653 35.3698 98.1071 33.9699 97.2587 32.6081C96.4103 31.2464 95.6813 30.0536 95.0714 29.0297C94.459 28.0051 94.0348 27.3149 93.7989 26.9594C93.2139 26.0771 92.8677 25.058 92.7944 24.0019C92.853 22.9883 93.1791 22.0084 93.7397 21.1619C93.9762 20.7676 94.41 20.0675 95.0409 19.062C95.6717 18.0564 96.411 16.8637 97.2587 15.4835C98.1064 14.1034 98.9647 12.6936 99.8334 11.2543C100.702 9.81501 101.519 8.46432 102.286 7.20247C103.056 5.94193 103.914 4.54205 104.859 3.00285H120L108.289 22.1082C107.926 22.6755 107.722 23.3292 107.697 24.0019C107.736 24.7081 107.983 25.3871 108.406 25.9538H108.408Z" fill="white"/>
<path d="M164.508 8.44667C163.781 7.3247 162.848 6.35093 161.758 5.57708C160.543 4.72653 159.193 4.08664 157.766 3.68436C156.033 3.20599 154.24 2.97732 152.443 3.0052H136V44.999H142.21V29.9166H152.916C155.332 29.9533 157.716 29.3623 159.836 28.2014C161.866 27.0756 163.553 25.4194 164.715 23.4096C165.961 21.1915 166.585 18.6779 166.519 16.1346C166.525 14.7603 166.366 13.3902 166.046 12.0535C165.739 10.7736 165.219 9.55445 164.508 8.44667ZM159.008 21.1926C158.213 22.4399 157.043 23.4029 155.666 23.9429C153.995 24.5752 152.217 24.8766 150.432 24.8301H142.21V8.15089H151.26C152.988 8.08561 154.708 8.41921 156.287 9.12583C157.543 9.73261 158.57 10.7282 159.215 11.9649C159.898 13.3519 160.233 14.8847 160.191 16.4304C160.259 18.0982 159.849 19.7506 159.008 21.1926Z" fill="#8BB5EB"/>
<path d="M181.838 3.00521C180.891 3.47838 179.994 3.94173 179.146 4.39518C178.298 4.84863 177.471 5.27243 176.663 5.66674C175.853 6.06105 175.035 6.45543 174.208 6.84974C173.38 7.24404 172.532 7.59888 171.664 7.91432C170.797 8.23108 169.871 8.54619 168.885 8.85966L170.186 13.8871C171.368 13.5322 172.443 13.1773 173.409 12.8225C174.355 12.4764 175.283 12.0816 176.189 11.6396C177.077 11.2059 177.964 10.7326 178.85 10.22L178.881 10.2023V44.9999H185.031V3.00617L181.838 3.00521Z" fill="#8BB5EB"/>
</svg>

<svg xmlns="http://www.w3.org/2000/svg" viewBox="0 0 186 48"><path fill="#fff" d="M0 45V3.004h13.78V45H0ZM32.528 9.688 40.453 45h-15.08L15.908 3.004h8.459a7.965 7.965 0 0 1 5.293 1.922 8.31 8.31 0 0 1 2.867 4.762ZM42.523 45V3.004h13.78V45h-13.78Zm24.189-26.026a8.213 8.213 0 0 1-4.228-1.124 8.336 8.336 0 0 1-3.046-3.046 8.206 8.206 0 0 1-1.125-4.229 8.056 8.056 0 0 1 1.125-4.2 8.437 8.437 0 0 1 3.046-3.016 8.232 8.232 0 0 1 4.228-1.124 8.083 8.083 0 0 1 4.199 1.124 8.503 8.503 0 0 1 3.016 3.016 8.075 8.075 0 0 1 1.125 4.2 8.226 8.226 0 0 1-1.125 4.23 8.4 8.4 0 0 1-3.016 3.045 8.059 8.059 0 0 1-4.201 1.124h.002ZM77.18 45V3.004h13.781V45H77.181Zm31.227-19.046c.039.04.334.524.887 1.449.553.925 1.272 2.108 2.159 3.549a1143.28 1143.28 0 0 1 5.589 9.168A854.89 854.89 0 0 0 120 45h-15.141c-.947-1.538-1.804-2.928-2.573-4.17a382.214 382.214 0 0 1-2.453-4.022 351.934 351.934 0 0 0-2.574-4.2 213.445 213.445 0 0 1-2.188-3.578 62.753 62.753 0 0 0-1.272-2.07 6.119 6.119 0 0 1-1.005-2.958 5.744 5.744 0 0 1 .946-2.84c.236-.394.67-1.095 1.3-2.1.632-1.006 1.371-2.198 2.219-3.579a636.03 636.03 0 0 0 2.574-4.229c.869-1.439 1.686-2.79 2.453-4.052.77-1.26 1.628-2.66 2.573-4.2H120l-11.711 19.106a3.773 3.773 0 0 0-.592 1.894c.039.706.286 1.385.709 1.952h.002Z"/><path fill="#8BB5EB" d="M164.508 8.447a10.564 10.564 0 0 0-2.75-2.87 13.214 13.214 0 0 0-3.992-1.893 18.906 18.906 0 0 0-5.323-.679H136V45h6.21V29.917h10.706c2.416.036 4.8-.555 6.92-1.716a12.815 12.815 0 0 0 4.879-4.791 14.108 14.108 0 0 0 1.804-7.275 17.207 17.207 0 0 0-.473-4.082c-.307-1.28-.827-2.499-1.538-3.606Zm-5.5 12.746a6.989 6.989 0 0 1-3.342 2.75 13.777 13.777 0 0 1-5.234.887h-8.222V8.15h9.05a11.265 11.265 0 0 1 5.027.976 6.483 6.483 0 0 1 2.928 2.839 9.523 9.523 0 0 1 .976 4.465 8.745 8.745 0 0 1-1.183 4.763ZM181.838 3.005c-.947.473-1.844.937-2.692 1.39a75.38 75.38 0 0 1-2.483 1.272c-.81.394-1.628.788-2.455 1.183-.828.394-1.676.749-2.544 1.064-.867.317-1.793.632-2.779.946l1.301 5.027a56.662 56.662 0 0 0 3.223-1.065c.946-.346 1.874-.74 2.78-1.182a42.985 42.985 0 0 0 2.661-1.42l.031-.018V45h6.15V3.006h-3.193Z"/></svg>
